styles/2/Numix/22/places/custom-folder-recent.svg

<?xml version="1.0" encoding="UTF-8" standalone="no"?>
<svg
   xmlns:dc="http://purl.org/dc/elements/1.1/"
   xmlns:cc="http://creativecommons.org/ns#"
   xmlns:rdf="http://www.w3.org/1999/02/22-rdf-syntax-ns#"
   xmlns:svg="http://www.w3.org/2000/svg"
   xmlns="http://www.w3.org/2000/svg"
   xmlns:sodipodi="http://sodipodi.sourceforge.net/DTD/sodipodi-0.dtd"
   xmlns:inkscape="http://www.inkscape.org/namespaces/inkscape"
   width="22"
   height="22"
   viewBox="0 0 22 22"
   id="svg3023"
   version="1.1"
   inkscape:version="0.91 r"
   sodipodi:docname="custom-folder-recent.svg">
  <metadata
     id="metadata3037">
    <rdf:RDF>
      <cc:Work
         rdf:about="">
        <dc:format>image/svg+xml</dc:format>
        <dc:type
           rdf:resource="http://purl.org/dc/dcmitype/StillImage" />
      </cc:Work>
    </rdf:RDF>
  </metadata>
  <defs
     id="defs3035" />
  <sodipodi:namedview
     pagecolor="#ffffff"
     bordercolor="#666666"
     borderopacity="1"
     objecttolerance="10"
     gridtolerance="10"
     guidetolerance="10"
     inkscape:pageopacity="0"
     inkscape:pageshadow="2"
     inkscape:window-width="1280"
     inkscape:window-height="998"
     id="namedview3033"
     showgrid="false"
     inkscape:zoom="21.454545"
     inkscape:cx="6.6710351"
     inkscape:cy="9.1522531"
     inkscape:window-x="0"
     inkscape:window-y="0"
     inkscape:window-maximized="1"
     inkscape:current-layer="svg3023" />
  <path
     style="font-size:medium;font-style:normal;font-variant:normal;font-weight:normal;font-stretch:normal;text-indent:0;text-align:start;text-decoration:none;line-height:normal;letter-spacing:normal;word-spacing:normal;text-transform:none;direction:ltr;block-progression:tb;writing-mode:lr-tb;text-anchor:start;baseline-shift:baseline;color:replacecolour3;fill:replacecolour1;fill-opacity:1;fill-rule:nonzero;stroke:none;stroke-width:1.03313816;marker:none;visibility:visible;display:inline;overflow:visible;enable-background:accumulate;font-family:Sans;-inkscape-font-specification:Sans"
     d="m 3.0000115,1.9999998 c -0.5473306,0 -1,0.4096882 -1,1 l 0,1 -1,0 c -0.50192724,0 -0.999999944444,0.3847489 -0.999999944444,1 -1.53000004e-5,4.5937492 0,9.4062502 0,14.0000002 0,0.545771 0.493417304444,1 0.999999944444,1 l 20.0000005,0 c 0.515688,0 1,-0.437034 1,-1 l 0,-13.0000002 c 0,-0.5770209 -0.423105,-1 -1,-1 l -2,0 0,-2 c 0,-0.4874255 -0.401824,-1 -1,-1 z"
     id="path2995"
     inkscape:connector-curvature="0"
     sodipodi:nodetypes="ccccccssssscssc" />
  <path
     style="font-size:medium;font-style:normal;font-variant:normal;font-weight:normal;font-stretch:normal;text-indent:0;text-align:start;text-decoration:none;line-height:normal;letter-spacing:normal;word-spacing:normal;text-transform:none;direction:ltr;block-progression:tb;writing-mode:lr-tb;text-anchor:start;baseline-shift:baseline;color:replacecolour3;fill:replacecolour2;fill-opacity:1.;fill-rule:nonzero;stroke:none;stroke-width:1.03313816;marker:none;visibility:visible;display:inline;overflow:visible;enable-background:accumulate;font-family:Sans;-inkscape-font-specification:Sans"
     d="m 3.0000115,1.9999998 c -0.5444543,0 -1,0.3988699 -1,1 l 0,1 -1,0 c -0.50675944,0 -0.999999944444,0.3964676 -0.999999944444,1 -2.6e-5,4.5937492 0,9.4062502 0,14.0000002 0,0.487177 0.419198504444,1 0.999999944444,1 l 20.0000005,0 c 0.521212,0 1,-0.442558 1,-1 l 0,-13.0000002 c 0,-0.5731146 -0.393904,-1 -1,-1 l -2,0 0,-2 c 0,-0.5585119 -0.457433,-1 -1,-1 z m 10.0000005,3 0,1 8,0 0,13.0000002 -20.0000005,0 0,-14.0000002 z"
     id="path3786"
     inkscape:connector-curvature="0"
     sodipodi:nodetypes="ssccccssssscsssccccccc" />
  <path
     style="opacity:1;fill:replacecolour3;fill-opacity:1.;stroke:none"
     d="M 6 8 L 6 12 L 10 12 L 8.90625 10.90625 C 9.4481294 10.36188 10.171092 10 11 10 C 12.656854 10 14 11.343146 14 13 C 14 14.656854 12.656854 16 11 16 C 10.115532 16 9.3303238 15.608906 8.78125 15 L 6.4375 15 C 7.2117722 16.759522 8.9543075 18 11 18 C 13.761424 18 16 15.761424 16 13 C 16 10.238576 13.761424 8 11 8 C 9.6175594 8 8.4002865 8.5896423 7.5 9.5 L 6 8 z "
     id="path3910" />
</svg>

<svg xmlns="http://www.w3.org/2000/svg" viewBox="0 0 22 22">
 <path d="m 3 2 c -0.547 0 -1 0.41 -1 1 l 0 1 -1 0 c -0.502 0 -1 0.385 -1 1 0 4.594 0 9.406 0 14 0 0.546 0.493 1 1 1 l 20 0 c 0.516 0 1 -0.437 1 -1 l 0 -13 c 0 -0.577 -0.423 -1 -1 -1 l -2 0 0 -2 c 0 -0.487 -0.402 -1 -1 -1 z" style="visibility:visible;fill:replacecolour1;fill-opacity:1;stroke:none;display:inline;color:replacecolour3;fill-rule:nonzero"/>
 <path d="m 3 2 c -0.544 0 -1 0.399 -1 1 l 0 1 -1 0 c -0.507 0 -1 0.396 -1 1 0 4.594 0 9.406 0 14 0 0.487 0.419 1 1 1 l 20 0 c 0.521 0 1 -0.443 1 -1 l 0 -13 c 0 -0.573 -0.394 -1 -1 -1 l -2 0 0 -2 c 0 -0.559 -0.457 -1 -1 -1 z m 10 3 0 1 8 0 0 13 -20 0 0 -14 z" style="visibility:visible;fill:replacecolour2;fill-opacity:1;stroke:none;display:inline;color:replacecolour3;fill-rule:nonzero"/>
 <path d="m 6 8 l 0 4 l 4 0 l -1.094 -1.094 c 0.542 -0.544 1.265 -0.906 2.094 -0.906 c 1.657 0 3 1.343 3 3 c 0 1.657 -1.343 3 -3 3 c -0.884 0 -1.67 -0.391 -2.219 -1 l -2.344 0 c 0.774 1.76 2.517 3 4.563 3 c 2.761 0 5 -2.239 5 -5 c 0 -2.761 -2.239 -5 -5 -5 c -1.382 0 -2.6 0.59 -3.5 1.5 l -1.5 -1.5 z" style="fill:replacecolour3;opacity:1;fill-opacity:1;stroke:none"/>
</svg>
